X:135
T:Sl\"angpolska fr{\aa}n Kumla
R:sl\"angpolska
H:efter Olov Larsson, Hidinge
A:N\"arke
Z:id:hn-sp-135
M:3/4
L:1/16
K:D
|: dedc d2A2 F3A | dcde d2A2 f4 | e3f g2e2 f2d2 | d2cd e2c2 A3c |
dedc d2A2 F3A | dcde d2A2 f4 | e3f g2e2 f2d2 | cdec c2d2 d4 :|
|: fafd fafd fafd | eaec eaec eaec | d3c B2c2 d2e2 | d2cB A4 A2A2 |
BdBG BdBG BdBG | AdAF AdAF AdAF | G3F E2g2 f2d2 | fedc c2d2 d4 :|
<end>
<start>
